X:177
T:Brick Makers, The
M:2/4
L:1/8
B:Thompson's Compleat Collection of 200 Favourite Country Dances, vol. 1 (London, 1757)
Z:Transcribed and edited by Flynn Titford-Mock, 2007
Z:abc's:AK/Fiddler's Companion
K:Gmin
(B/c/)|d B2 d|c A2 c|B G2 B|A^F D2|G2 AB|cAG^F|G2 G2|G3:|
|:B/c/|d b2 (a|a) g2 (f|f2) gf|f2 gA|B2 cd|e2 fg|fdcB|{B}A2 GF|
B A2 (c|c) B2 (d|d)ceG|{G}^F2 ED|G2 AB|cAG^F|G2 G2|G3:|

